!!!SOCIAL_FUNCTION:	dance songs
!!!PDT:	1943
!!!OTL: No_38_Dance_Song_of_the_Fraser_River_Indians_(b).krn
!!!REG: British Columbia
**kern	**kern
*staff2	*staff1
=1-	=1-
*clefF4	*clefF4
*k[f#c#g#d#]	*k[f#c#g#d#]
*M2/4	*M2/4
8GG#/L	[2B\
8GG#/J	.
8GG#/L	.
8GG#/J	.
=2	=2
8GG#/L	2B\]
8GG#/J	.
4r	.
=3	=3
2r	4B\
.	8.B\L
.	16B\Jk
=4	=4
2r	4B\
.	4r
=5	=5
2r	4B\
.	4c#\
=6	=6
2r	8c#\L
.	8B\J
.	[4B\
=7||	=7||
*M3/4	*M3/4
2.r	2B\_
.	8B\L]
.	8F#\J
=8	=8
2.r	8G#\L
.	8F#\J
.	2D#\
=9	=9
2.r	2D#\
.	4r
=10||	=10||
*M2/4	*M2/4
2r	[2B\
=11	=11
2r	4.B\]
.	8A\
=12	=12
2r	4B\
.	4F#\
=13	=13
2r	8D#\
.	8r
.	4F#\
=14	=14
2r	4G#\
.	8G#\L
.	8F#\J
=15	=15
2r	[2F#\
=16	=16
2r	8F#\L]
.	16D#\Jk
.	16r
.	8F#\L
.	8E\J
=17	=17
2r	[2E\
=18||	=18||
*M3/4	*M3/4
2.r	2E\]
.	8.r
.	16E\
=19||	=19||
*M2/4	*M2/4
2r	[2F#\
=20	=20
2r	4F#\]
.	8E\L
.	8E\J
=21||	=21||
*M3/4	*M3/4
2.r	4E\
.	4r
.	4E\
=22||	=22||
*M2/4	*M2/4
2r	4F#\
.	8F#\L
.	8E\J
=23	=23
2r	2E\
=24	=24
2r	4E\
.	8r
.	8BB/
=25	=25
2r	4BB/
.	12E\L
.	12E\
.	12E\J
=26	=26
2r	2E\
=27	=27
2r	2E\
==	==
*-	*-
